layouts/icon-pack/weapon_rapier.svg

<?xml version="1.0" encoding="UTF-8"?>
<svg width="1200pt" height="1200pt" version="1.1" viewBox="0 0 1200 1200" xmlns="http://www.w3.org/2000/svg">
 <g fill="#fff">
  <path d="m172.15 1112.9c4.1562-4.1445 7.668-8.8828 10.43-14.062 35.352 0.48828 70.613 3.707 105.47 9.6328 86.719 14.062 128.74-61.055 138.84-102.75 2.0039-8.2617-0.54688-16.965-6.6992-22.832-6.1523-5.8633-14.965-8.0039-23.121-5.6133-8.1562 2.3945-14.418 8.957-16.422 17.219-0.77344 3.1875-19.594 77.602-84.961 66.984-27.703-4.5-51.703-7.0312-71.719-8.5781-4.0039-0.27734-7.4492-2.9375-8.7305-6.7422-1.2812-3.8008-0.14844-8.0039 2.8711-10.648l170.79-150.38 76.219 76.219c3.0547 3.0703 7.4766 4.3359 11.691 3.3555 4.2188-0.98438 7.625-4.082 9.0039-8.1836 13.406-40.477 36.211-139.01-33.469-208.88s-168.33-47.086-208.8-33.492c-4.1016 1.3789-7.1992 4.7852-8.1836 9.0039-0.98047 4.2148 0.28516 8.6367 3.3555 11.691l76.219 76.219-176.04 199.9c-20.664-3.2305-41.523 4.5117-55.078 20.438-13.559 15.926-17.867 37.754-11.379 57.637 6.4883 19.883 22.84 34.969 43.18 39.836 20.344 4.8672 41.75-1.1836 56.535-15.98z"/>
  <path d="m452.34 686.72c24.215 15.992 44.945 36.723 60.938 60.938 3.0469 4.7227 8.1289 7.7461 13.734 8.1719 5.6016 0.42969 11.082-1.7891 14.812-5.9922l585.7-661.66c9.2578-10.477-5.2734-25.008-15.75-15.75l-661.78 585.68c-4.2148 3.7539-6.4219 9.2695-5.9609 14.895 0.46094 5.625 3.5352 10.707 8.3047 13.723z"/>
 </g>
</svg>

<?xml version="1.0" encoding="UTF-8" standalone="no"?>
<!DOCTYPE svg PUBLIC "-//W3C//DTD SVG 1.1//EN" "http://www.w3.org/Graphics/SVG/1.1/DTD/svg11.dtd">
<svg width="100%" height="100%" viewBox="0 0 512 512" version="1.1" xmlns="http://www.w3.org/2000/svg" xmlns:xlink="http://www.w3.org/1999/xlink" xml:space="preserve" xmlns:serif="http://www.serif.com/" style="fill-rule:evenodd;clip-rule:evenodd;stroke-linejoin:round;stroke-miterlimit:2;">
    <g transform="matrix(1,0,0,1,-69.4696,-69.4743)">
        <g transform="matrix(0.48254,0,0,0.48254,35.9477,35.9502)">
            <path d="M172.15,1112.9C176.306,1108.76 179.818,1104.02 182.58,1098.84C217.932,1099.33 253.193,1102.55 288.05,1108.47C374.769,1122.53 416.79,1047.42 426.89,1005.72C428.894,997.459 426.343,988.756 420.191,982.889C414.038,977.026 405.226,974.885 397.07,977.276C388.914,979.67 382.652,986.233 380.648,994.495C379.874,997.682 361.054,1072.1 295.687,1061.48C267.984,1056.98 243.984,1054.45 223.968,1052.9C219.964,1052.62 216.519,1049.96 215.237,1046.16C213.956,1042.36 215.089,1038.15 218.108,1035.51L388.898,885.13L465.117,961.349C468.172,964.42 472.594,965.685 476.808,964.705C481.027,963.72 484.433,960.623 485.812,956.521C499.218,916.044 522.023,817.511 452.343,747.641C382.663,677.771 284.013,700.555 243.543,714.149C239.442,715.528 236.344,718.934 235.36,723.153C234.379,727.368 235.645,731.79 238.715,734.844L314.934,811.063L138.894,1010.96C118.23,1007.73 97.371,1015.48 83.816,1031.4C70.257,1047.33 65.949,1069.15 72.437,1089.04C78.925,1108.92 95.277,1124.01 115.617,1128.87C135.961,1133.74 157.367,1127.69 172.152,1112.89L172.15,1112.9Z" style="fill:white;fill-rule:nonzero;"/>
            <path d="M452.34,686.72C476.555,702.712 497.285,723.443 513.278,747.658C516.325,752.381 521.407,755.404 527.012,755.83C532.614,756.26 538.094,754.041 541.824,749.838L1127.52,88.178C1136.78,77.701 1122.25,63.17 1111.77,72.428L449.994,658.108C445.779,661.862 443.572,667.377 444.033,673.003C444.494,678.628 447.568,683.71 452.338,686.726L452.34,686.72Z" style="fill:white;fill-rule:nonzero;"/>
        </g>
    </g>
</svg>
